static/images/pieces/shogi/cz/0RY.svg

<svg height="31.358999mm" viewBox="0 0 27.116999 31.358999" width="27.116999mm" xmlns="http://www.w3.org/2000/svg" xmlns:xlink="http://www.w3.org/1999/xlink"><linearGradient id="a" gradientUnits="userSpaceOnUse" x1="11.70341" x2="11.70341" y1="8.19215" y2="-67.209395"><stop offset="0" stop-color="#ffdba6"/><stop offset="1" stop-color="#f2c478"/></linearGradient><clipPath id="b"><path d="m0 2834.646h2834.646v-2834.646h-2834.646z" transform="translate(-531.98141 -1475.1781)"/></clipPath><g clip-path="url(#b)" stroke-miterlimit="10" transform="matrix(.35277776 0 0 -.35277776 21.23115 5.270016)"><path d="m0 0-21.223 7.255c-.337.115-.707.115-1.044 0l-21.223-7.255c-.512-.175-.879-.592-.956-1.088l-9.882-63.712c-.128-.823.569-1.559 1.477-1.559h31.106 31.106c.907 0 1.605.736 1.477 1.559l-9.883 63.712c-.076.496-.443.913-.955 1.088" fill="url(#a)"/><path d="m-52.851562-67.208984c-1.367537 0-2.528283 1.176762-2.316407 2.539062l9.88086 63.71289075c.128752.82936477.735951 1.49322613 1.521484 1.76171875l21.224609 7.2558594c.517057.1764437 1.07474.1764437 1.591797 0h.002l21.22260963-7.2558594c.78495737-.26829599 1.39165257-.93197308 1.51953127-1.76171875v-.001953l9.8828121-63.71093775c.21198-1.362964-.949363-2.539062-2.3164059-2.539062h-31.1054691zm0 1.701172h31.107421 31.1054691c.4469549 0 .6807389.293137.6367188.576171v.002l-9.88281253 63.7128441c-.02473099.1614023-.15215872.33060237-.390625.4121094l-21.22265637 7.2558594v-.00195c-.156942.053556-.337198.053556-.49414 0v.00195l-21.222657-7.2558594c-.238466-.081507-.365377-.2514283-.390625-.4140625l-9.882812-63.710937v-.002c-.04412-.283698.188257-.576171.636719-.576171z" fill="#4d3608"/></g><g fill="#f00"><path d="m-.63867187 0v23.693359h1.27734374v-23.693359z" stroke-miterlimit="10" transform="matrix(.35277776 0 0 -.35277776 13.559927 24.859501)"/><path d="m.45117188-.45117188-.90234376.90234376 2.84374998 2.84375002 2.8457031-2.84375002-.9023437-.90234376-1.9433594 1.94140628z" stroke-miterlimit="10" transform="matrix(.35277776 0 0 -.35277776 12.715588 17.345282)"/><path d="m-2.3925781-3.2949219-2.8457031 2.84375002.9023437.90234376 1.9433594-1.94140628 1.94140622 1.94140628.90234376-.90234376z" stroke-miterlimit="10" transform="matrix(.35277776 0 0 -.35277776 14.404265 24.015163)"/><path d="m-23.693359-.63867187v1.27734374h23.693359v-1.27734374z" stroke-miterlimit="10" transform="matrix(.35277776 0 0 -.35277776 17.739216 20.680196)"/><path d="m-.45117188-.45117188-2.84375002 2.84374998 2.84375002 2.8457031.90234376-.9023437-1.94140628-1.9433594 1.94140628-1.94140622z" stroke-miterlimit="10" transform="matrix(.35277776 0 0 -.35277776 10.224978 21.524534)"/><path d="m.45117188-5.2382812-.90234376.9023437 1.94140628 1.9433594-1.94140628 1.94140622.90234376.90234376 2.84375002-2.84374998z" stroke-miterlimit="10" transform="matrix(.35277776 0 0 -.35277776 16.894878 19.83591)"/><path d="m12.369168 12.036125v-.496094h-1.455208v.496094zm0-1.025261v-.529167h-1.455208v.529167zm-2.182813 3.141928v-4.3656263h2.910418v3.5388033q0 .33073-.198438.529167-.264583.198438-.826823.297656-.03307-.297656-.09922-.463021 0-.03307-.06615-.132291-.06615-.06615-.165364-.165365h.429948q.132292 0 .165365-.03307.03307-.03307.03307-.132292v-.595315h-1.455201v1.521354zm3.671095-5.3247412v-2.2820322h.793751v.6283857h2.381251v.5953127h-2.381251v.496094h2.381251v1.6867194h-2.447397v.4960936h2.215886v.429948h-2.215886v.463021h2.215886v.463021h-2.215886v.463021h2.215886v.463022h-2.215886v.396875q0 .23151.132291.264583.06615.06615.463022.06615h.926042q.330729 0 .363802-.03307.297656-.09922.330729-.529167.330729.231511.661459.330729-.132292.496094-.363803.661459-.23151.198438-.529166.198438h-1.719793q-.363802 0-.56224-.06615-.165364-.03307-.330729-.264584-.09922-.132291-.09922-.429948v-3.9356814h2.447397v-.5622398zm-1.852084-.0992188.264584-.9921879h-1.190626q.165365.5291669.297657.9921879zm-.727604-1.5544277v-.6614586h.79375v.6614586h1.322917v.5622398h-.396875l-.330729.9921879h.892969v.6614586h-3.7703141v-.6614586h.8929691q0-.099219-.09922-.4299481-.09922-.3638022-.165364-.5622398h-.4960933v-.5622398z" stroke-width=".352777"/><path d="m-.45117188-.45117188-13.97265612 13.97460988.902344.902343 13.97265588-13.97460912z" stroke-miterlimit="10" transform="matrix(.35277776 0 0 -.35277776 16.024645 23.144816)"/><path d="m-13.521484-14.425781-.902344.902343 13.97265612 13.97460988.90234376-.90234376z" stroke-miterlimit="10" transform="matrix(.35277776 0 0 -.35277776 16.024645 18.215284)"/></g></svg>

<?xml version="1.0" encoding="UTF-8" standalone="no"?>
<!-- Created with Inkscape (http://www.inkscape.org/) -->

<svg
   width="27.116999mm"
   height="31.358999mm"
   viewBox="0 0 27.116999 31.358999"
   version="1.1"
   id="svg1"
   xmlns:xlink="http://www.w3.org/1999/xlink"
   xmlns="http://www.w3.org/2000/svg"
   xmlns:svg="http://www.w3.org/2000/svg">
  <defs
     id="defs1">
    <linearGradient
       xlink:href="#linearGradient22"
       id="linearGradient2"
       x1="-545.1344"
       y1="133.8282"
       x2="-545.1344"
       y2="58.426655"
       gradientUnits="userSpaceOnUse"
       gradientTransform="translate(556.83781,-125.63605)" />
    <linearGradient
       id="linearGradient22">
      <stop
         style="stop-color:#ffdba6;stop-opacity:1;"
         offset="0"
         id="stop21" />
      <stop
         style="stop-color:#f2c478;stop-opacity:1;"
         offset="1"
         id="stop22" />
    </linearGradient>
    <clipPath
       clipPathUnits="userSpaceOnUse"
       id="clipPath1360">
      <path
         d="M 0,2834.646 H 2834.646 V 0 H 0 Z"
         transform="translate(-531.98141,-1475.1781)"
         id="path1360" />
    </clipPath>
  </defs>
  <g
     id="layer1">
    <g
       id="path1359"
       clip-path="url(#clipPath1360)"
       transform="matrix(0.35277776,0,0,-0.35277776,21.23115,5.2700156)">
      <path
         style="color:#000000;fill:url(#linearGradient2);stroke-miterlimit:10;-inkscape-stroke:none"
         d="m 0,0 -21.223,7.255 c -0.337,0.115 -0.707,0.115 -1.044,0 L -43.49,0 c -0.512,-0.175 -0.879,-0.592 -0.956,-1.088 L -54.328,-64.8 c -0.128,-0.823 0.569,-1.559 1.477,-1.559 h 31.106 31.106 c 0.907,0 1.605,0.736 1.477,1.559 L 0.955,-1.088 C 0.879,-0.592 0.512,-0.175 0,0"
         id="path14" />
      <path
         style="color:#000000;fill:#4d3608;stroke-miterlimit:10;-inkscape-stroke:none"
         d="m -52.851562,-67.208984 c -1.367537,0 -2.528283,1.176762 -2.316407,2.539062 l 9.88086,63.71289075 c 0.128752,0.82936477 0.735951,1.49322613 1.521484,1.76171875 l 21.224609,7.2558594 c 0.517057,0.1764437 1.07474,0.1764437 1.591797,0 h 0.002 L 0.27539063,0.8046875 C 1.060348,0.53639151 1.6670432,-0.12728558 1.7949219,-0.95703125 v -0.001953 L 11.677734,-64.669922 c 0.21198,-1.362964 -0.949363,-2.539062 -2.3164059,-2.539062 H -21.744141 Z m 0,1.701172 h 31.107421 31.1054691 c 0.4469549,0 0.6807389,0.293137 0.6367188,0.576171 v 0.002 L 0.11523437,-1.2167969 c -0.02473099,0.1614023 -0.15215872,0.33060237 -0.390625,0.4121094 L -21.498047,6.4511719 v -0.00195 c -0.156942,0.053556 -0.337198,0.053556 -0.49414,0 v 0.00195 l -21.222657,-7.2558594 c -0.238466,-0.081507 -0.365377,-0.2514283 -0.390625,-0.4140625 l -9.882812,-63.710937 v -0.002 c -0.04412,-0.283698 0.188257,-0.576171 0.636719,-0.576171 z"
         id="path15" />
    </g>
    <path
       style="color:#000000;fill:#ff0000;stroke-miterlimit:10;-inkscape-stroke:none"
       d="M -0.63867187,0 V 23.693359 H 0.63867187 V 0 Z"
       id="path1361"
       transform="matrix(0.35277776,0,0,-0.35277776,13.559927,24.859501)" />
    <path
       style="color:#000000;fill:#ff0000;stroke-miterlimit:10;-inkscape-stroke:none"
       d="M 0.45117188,-0.45117188 -0.45117188,0.45117188 2.3925781,3.2949219 5.2382812,0.45117188 4.3359375,-0.45117188 2.3925781,1.4902344 Z"
       id="path1363"
       transform="matrix(0.35277776,0,0,-0.35277776,12.715588,17.345282)" />
    <path
       style="color:#000000;fill:#ff0000;stroke-miterlimit:10;-inkscape-stroke:none"
       d="m -2.3925781,-3.2949219 -2.8457031,2.84375002 0.9023437,0.90234376 1.9433594,-1.94140628 1.94140622,1.94140628 0.90234376,-0.90234376 z"
       id="path1365"
       transform="matrix(0.35277776,0,0,-0.35277776,14.404265,24.015163)" />
    <path
       style="color:#000000;fill:#ff0000;stroke-miterlimit:10;-inkscape-stroke:none"
       d="M -23.693359,-0.63867187 V 0.63867187 H 0 v -1.27734374 z"
       id="path1367"
       transform="matrix(0.35277776,0,0,-0.35277776,17.739216,20.680196)" />
    <path
       style="color:#000000;fill:#ff0000;stroke-miterlimit:10;-inkscape-stroke:none"
       d="M -0.45117188,-0.45117188 -3.2949219,2.3925781 -0.45117188,5.2382812 0.45117188,4.3359375 -1.4902344,2.3925781 0.45117188,0.45117188 Z"
       id="path1369"
       transform="matrix(0.35277776,0,0,-0.35277776,10.224978,21.524534)" />
    <path
       style="color:#000000;fill:#ff0000;stroke-miterlimit:10;-inkscape-stroke:none"
       d="M 0.45117188,-5.2382812 -0.45117188,-4.3359375 1.4902344,-2.3925781 -0.45117188,-0.45117188 0.45117188,0.45117188 3.2949219,-2.3925781 Z"
       id="path1371"
       transform="matrix(0.35277776,0,0,-0.35277776,16.894878,19.83591)" />
    <path
       style="fill:#ff0000;stroke-width:0.352777"
       d="M 12.369168,12.036125 V 11.540031 H 10.91396 v 0.496094 z m 0,-1.025261 V 10.481697 H 10.91396 v 0.529167 z m -2.182813,3.141928 V 9.7871657 h 2.910418 v 3.5388033 q 0,0.33073 -0.198438,0.529167 -0.264583,0.198438 -0.826823,0.297656 -0.03307,-0.297656 -0.09922,-0.463021 0,-0.03307 -0.06615,-0.132291 -0.06615,-0.06615 -0.165364,-0.165365 h 0.429948 q 0.132292,0 0.165365,-0.03307 0.03307,-0.03307 0.03307,-0.132292 V 12.631438 H 10.91396 v 1.521354 z M 13.85745,8.8280508 V 6.5460186 h 0.793751 v 0.6283857 h 2.381251 V 7.769717 h -2.381251 v 0.496094 h 2.381251 v 1.6867194 h -2.447397 v 0.4960936 h 2.215886 v 0.429948 h -2.215886 v 0.463021 h 2.215886 v 0.463021 h -2.215886 v 0.463021 h 2.215886 v 0.463022 h -2.215886 v 0.396875 q 0,0.23151 0.132291,0.264583 0.06615,0.06615 0.463022,0.06615 h 0.926042 q 0.330729,0 0.363802,-0.03307 0.297656,-0.09922 0.330729,-0.529167 0.330729,0.231511 0.661459,0.330729 -0.132292,0.496094 -0.363803,0.661459 -0.23151,0.198438 -0.529166,0.198438 h -1.719793 q -0.363802,0 -0.56224,-0.06615 -0.165364,-0.03307 -0.330729,-0.264584 -0.09922,-0.132291 -0.09922,-0.429948 V 9.3902906 h 2.447397 V 8.8280508 Z M 12.005366,8.728832 12.26995,7.7366441 H 11.079324 Q 11.244689,8.265811 11.376981,8.728832 Z M 11.277762,7.1744043 V 6.5129457 h 0.79375 v 0.6614586 h 1.322917 V 7.7366441 H 12.997554 L 12.666825,8.728832 h 0.892969 V 9.3902906 H 9.7894799 V 8.728832 h 0.8929691 q 0,-0.099219 -0.09922,-0.4299481 -0.09922,-0.3638022 -0.165364,-0.5622398 H 9.9217717 V 7.1744043 Z"
       id="text1372"
       aria-label="龍" />
    <path
       style="color:#000000;fill:#ff0000;stroke-miterlimit:10;-inkscape-stroke:none"
       d="M -0.45117188,-0.45117188 -14.423828,13.523438 -13.521484,14.425781 0.45117188,0.45117188 Z"
       id="path1389"
       transform="matrix(0.35277776,0,0,-0.35277776,16.024645,23.144816)" />
    <path
       style="color:#000000;fill:#ff0000;stroke-miterlimit:10;-inkscape-stroke:none"
       d="m -13.521484,-14.425781 -0.902344,0.902343 13.97265612,13.97460988 0.90234376,-0.90234376 z"
       id="path1391"
       transform="matrix(0.35277776,0,0,-0.35277776,16.024645,18.215284)" />
  </g>
</svg>
